public/img/navigation-menu/CreateIdea.svg

<?xml version="1.0" encoding="UTF-8"?>
<svg width="118px" height="38px" viewBox="0 0 118 38" version="1.1" xmlns="http://www.w3.org/2000/svg" xmlns:xlink="http://www.w3.org/1999/xlink">
    <!-- Generator: Sketch 42 (36781) - http://www.bohemiancoding.com/sketch -->
    <title>CreateIdea</title>
    <desc>Created with Sketch.</desc>
    <defs></defs>
    <g id="Page-1" stroke="none" stroke-width="1" fill="none" fill-rule="evenodd">
        <g id="Home" transform="translate(-437.000000, -21.000000)">
            <g id="Menu">
                <g id="CreateIdea" transform="translate(437.000000, 21.000000)">
                    <path d="M50.7505075,9.77365203 L50.7505075,28.0987252 C50.7505075,28.295213 50.8554747,28.4770504 51.0249709,28.5752943 L66.8689953,37.7378309 C67.0393519,37.8360748 67.2484259,37.8360748 67.4179221,37.7378309 L83.2628069,28.5752943 C83.4323031,28.4770504 83.5372703,28.295213 83.5372703,28.0987252 L83.5372703,9.77365203 C83.5372703,9.57716423 83.4323031,9.39532683 83.2628069,9.29708293 L67.4179221,0.134546341 C67.2484259,0.036302439 67.0393519,0.036302439 66.8689953,0.134546341 L51.0249709,9.29708293 C50.8554747,9.39532683 50.7505075,9.57716423 50.7505075,9.77365203" id="Fill-12" fill="#03A9CC"></path>
                    <path d="M72.1904021,12.1913138 C69.4440472,9.39825691 64.9708958,9.36464715 62.1823819,12.1068585 C59.393868,14.8490699 59.360313,19.3381268 62.098064,22.1311837 C62.5446048,22.6120618 62.8646687,23.2032488 63.0160968,23.8358016 C64.2042911,24.4183707 65.6531826,24.7811837 67.1442331,24.7811837 C68.6602347,24.7811837 70.1435417,24.4097528 71.3480833,23.8021919 C71.5330665,23.1015577 71.8952894,22.4517691 72.392593,21.9122894 C74.9032019,19.1269886 74.818884,14.8663057 72.1904021,12.1913138 M67.1442331,25.9618341 C65.7796595,25.9618341 64.364323,25.6748585 63.1090186,25.1689886 C63.1004147,25.4309724 63.1176225,25.6748585 63.1597814,25.9282244 C63.4462902,27.6078504 64.7514971,28.9238016 66.4283912,29.2357691 C66.6641372,29.2779967 66.8998832,29.3038504 67.1356292,29.3038504 C69.3683331,29.3038504 71.1794475,27.4975415 71.1880514,25.2620618 L71.1880514,25.1689886 C69.9241431,25.6748585 68.5088066,25.9618341 67.1442331,25.9618341" id="Fill-14" fill="#FEFEFE"></path>
                    <text id="IDEA" font-family="MuseoSans-500, Museo Sans" font-size="11" font-weight="normal" fill="#00A8CB">
                        <tspan x="93.448" y="24">IDEA</tspan>
                    </text>
                    <text id="CREATE" font-family="MuseoSans-500, Museo Sans" font-size="11" font-weight="normal" fill="#00A8CB">
                        <tspan x="0.443" y="24">CREATE</tspan>
                    </text>
                </g>
            </g>
        </g>
    </g>
</svg>

<svg width="118" height="38" viewBox="0 0 118 38" xmlns="http://www.w3.org/2000/svg"><title>CreateIdea</title><g fill="none" fill-rule="evenodd"><path d="M50.75 9.774v18.325c0 .196.105.378.275.476l15.844 9.163c.17.098.38.098.549 0l15.845-9.163a.551.551 0 0 0 .274-.476V9.774a.551.551 0 0 0-.274-.477L67.418.135a.548.548 0 0 0-.549 0L51.025 9.297a.551.551 0 0 0-.274.477" fill="#03A9CC"/><path d="M72.19 12.191a7.07 7.07 0 0 0-10.008-.084c-2.788 2.742-2.822 7.231-.084 10.024.447.481.767 1.072.918 1.705a9.52 9.52 0 0 0 4.128.945c1.516 0 3-.371 4.204-.979a4.49 4.49 0 0 1 1.045-1.89 7.094 7.094 0 0 0-.203-9.72m-5.046 13.77c-1.364 0-2.78-.287-4.035-.793-.009.262.009.506.05.76a4.061 4.061 0 0 0 3.977 3.375 4.054 4.054 0 0 0 4.052-4.042v-.093a11.07 11.07 0 0 1-4.044.793" fill="#FEFEFE"/><text font-family="MuseoSans-500, Museo Sans" font-size="11" fill="#00A8CB"><tspan x="93.448" y="24">IDEA</tspan></text><text font-family="MuseoSans-500, Museo Sans" font-size="11" fill="#00A8CB"><tspan x=".443" y="24">CREATE</tspan></text></g></svg>
